X:1
T:It was a lover and his lass, F major
T:Thomas Morley (1557-1602)
T:William Shakespeare (1564-1616)
T:Public Domain.  First published circa  1600 Transcribed for MuseScore  by E. van Eerten from Reliquary of English Song, New York:  G. Schirmer 1915 http://imslp.org/wiki/Reliquary_of_English_Song_(Various)
T:Public Domain.  First published circa  1600 Transcribed for MuseScore  by E. van Eerten from Reliquary of English Song, New York:  G. Schirmer 1915 http://imslp.org/wiki/Reliquary_of_English_Song_(Various)
T:Public Domain.  First published circa  1600 Transcribed for MuseScore  by E. van Eerten from Reliquary of English Song, New York:  G. Schirmer 1915 http://imslp.org/wiki/Reliquary_of_English_Song_(Various)
T:Public Domain.  First published circa  1600 Transcribed for MuseScore  by E. van Eerten from Reliquary of English Song, New York:  G. Schirmer 1915 http://imslp.org/wiki/Reliquary_of_English_Song_(Various)
T:Public Domain.  First published circa  1600 Transcribed for MuseScore  by E. van Eerten from Reliquary of English Song, New York:  G. Schirmer 1915 http://imslp.org/wiki/Reliquary_of_English_Song_(Various)
T:Public Domain.  First published circa  1600 Transcribed for MuseScore  by E. van Eerten from Reliquary of English Song, New York:  G. Schirmer 1915 http://imslp.org/wiki/Reliquary_of_English_Song_(Various)
T:Public Domain.  First published circa  1600 Transcribed for MuseScore  by E. van Eerten from Reliquary of English Song, New York:  G. Schirmer 1915 http://imslp.org/wiki/Reliquary_of_English_Song_(Various)
Z:Public Domain.  First published circa  1600
Z:Transcribed for MuseScore  by E. van Eerten from Reliquary of English Song, New York:  G. Schirmer 1915
Z:http://imslp.org/wiki/Reliquary_of_English_Song_(Various)
%%score 1 { ( 2 4 ) | 3 }
L:1/8
Q:1/4=150
M:4/4
K:F
V:1 treble nm="Soprano" snm="S."
V:2 treble nm="Piano" snm="Pno."
V:4 treble 
V:3 bass 
V:1
"^Briskly" z2 | z8 | z8 | z8 | z4 z2!mf! F2 | A3 B c2 c2 | B2 A2 G2 G A |!<(! B2 B c d2!<)! d _e | %8
w: ||||1~.It|was a lov- er|and his lass, With a|hey, and a ho, and a|
w: ||||2.~Be-|tween the a- cres|of the rye, * *||
w: ||||3.~This|car- ol they be-|gan that hour, * *||
w: ||||4.~Then,|pret- ty lov- ers,|take the time, * *||
 f6 _e d | c2 A B c4- | c2 B A B2 G2 | F4 z2!p! c2 | c2 c2 d2 c2 | B2 A2 G2 G2 | d4 =B2 G2 | %15
w: hey no ni|no, and a hey|_ no ni no- ni-|no 1.~That|o'er the green corn-|field did pass In|spring- time, in|
w: |||* 2.~These|pret- ty coun- try|fools did lie *||
w: |||* 3.~|How that life was|but a flow'r *||
w: |||* 4.~For|love is crown- ed|with the prime *||
 c4 A2!f! c2 | f4 d2 B2 | d2 c2 B2 A2 | c4 A2!p! F2 | B2 A2 G2 c2 | c B A G F2!<(! f2!<)! | %21
w: spring- time, in|spring- time, The|on- ly pret- ty|ring- time, When|birds do sing, hey|ding- a- ding- a- ding, Hey|
w: ||||||
w: ||||||
w: ||||||
 f _e d c B2 d2 | d c B A G2 B2 | A3 A G3 G | F2!f! F2 c4 | A4 z4 | z2 c2 f4 | d2 B2 d4 | %28
w: ding- a- ding- a- ding, hey|ding- a- ding- a- ding, Sweet|lov- ers love the|spring! In spring-|time,|In spring-|time, The on-|
w: |||||||
w: |||||||
w: |||||||
 c2 B4 A2 | c4 A2 F2 | B2 A2 G2!p! c2 | c B A G F2!<(! f2!<)! | f _e d c B2 d2 | d c B A G2!f! B2 | %34
w: ly pret- ty|ring- time, When|birds do sing, hey|ding- a- ding- a- ding, hey|ding- a- ding- a- ding, hey|ding- a- ding- a- ding, Sweet|
w: ||||||
w: ||||||
w: ||||||
"^rit."[Q:1/4=132]"^Fast" A3 A[Q:1/4=120]"^Lively" G3 G |[Q:1/4=112]"^Moderate" F6 :| %36
w: lov- ers love the|spring!|
w: ||
w: ||
w: ||
V:2
!p! F2 | A3 B c2 c2 | B2 A2 G2 [GB]2 | [CA]4 [CG]4 | [A,F]6!mf! F2 | A3 B c2 [Ac]2 | %6
 [GB]2 [^FA]2 G2 GA | B2 Bc d2 d_e | [Bf]2 z2 z2 _ed | c2 AB c4 | c2 BA B2 G2 | [A,F]6!p! [FAc]2 | %12
 [FAc]2 [FAc]2 [FBd]2 [FAc]2 | [DGB]2 [D^FA]2 [B,DG]2 G2 | d4 =B2 G2 | A4 A2!f! c2 | f4 d2 B2 | %17
 d2 c2 B2 A2 | [Gc]4 A2!p! F2 | B2 A2 G2 [Gc]2 | [Fc]2 z2 z2!<(! [Acf]2!<)! | [Bf]2 z2 z2 [FBd]2 | %22
 [GBd]2 z2 z2 [GB]2 | [CA]4 [CG]4 | [A,F]2!f! [A,CF]2 [CGc]4 | [CFA]2 [CF]2 [CG]4 | [CFA]2 c2 f4 | %27
 [Bd]2 B2 [Bd]4 | [Ac]2 [GB]4 [FA]2 | [Gc]4 A2 F2 | B2 A2 G2!p! [Gc]2 | %31
 [Fc]2 z2 z2!<(! [Acf]2!<)! | [Bf]2 z2 z2 [FBd]2 | [GBd]2 z2 z2!f! [GB]2 | [CA]4 [CG]4 | [A,F]6 :| %36
V:3
 z2 | F,3 G, A,2 A,2 | G,2 F,2 C,2 E,2 | F,2 A,,2 C,4 | [F,,C,]6 z2 | F,3 G, A,2 F,2 | %6
 G,2 D,2 G,2 z2 | z2 G,A, B,2 B,C | D2 D_E F2 CB, | A,2 F,,G,, A,,2 A,,B,, | C,2 D,2 G,,2 C,2 | %11
 F,,6 F,,2 | F,,2 F,2 B,,2 F,2 | G,2 D,2 G,2 z2 | z2 D,2 G,2 z2 | z2 C,2 F,2 z2 | z2 F,2 B,2 z2 | %17
 B,,2 C,D, E,2 F,2 | C,4 F,2 A,2 | G,2 F,2 C,2 CB, | A,2 z2 z2 F,_E, | D,2 z2 z2 B,,A,, | %22
 G,,2 z2 z2 G,,2 | F,,2 A,,2 C,4 | F,,2 F,2 (F,2 E,2) | F,2 A,,2 C,4 | F,,2 z2 z2 F,,2 | %27
 (B,,4 B,,)C,D,E, | F,2 G,2 E,2 F,2 | C,4 F,2 A,2 | G,2 F,2 C2 CB, | A,2 z2 z2 F,_E, | %32
 D,2 z2 z2 B,,A,, | G,,2 z2 z2 G,,2 |"^rit." F,,2 A,,2 C,4 | F,,6 :| %36
V:4
 x2 | F6 C2 | DE F2 E2 C2 | (G2 F2) (F2 E2) | x8 | F6 F2 | D2 D2 [B,D]2 (G2 | G2) G6 | %8
 F2 z2 z2 F2 | F2 x2 x4 | =E2 F2 D2 E2 | x8 | x8 | x8 | z2 [^FA]2 G2 G2 | z2 [EG]2 F2 z2 | %16
 z2 [Ac]2 B2 B2 | D2 EF G2 F2 | (F2 E2) F2 C2 | DE F2 E2 [EG]2 | x8 | x8 | z4 z2 [B,D][CE] | %23
 G2 F2 F2 E2 | x8 | x2 x2 F2 E2 | x2 x2 x2 A2 | x8 | x8 | F2 E2 F2 C2 | DE F2 E2 [EG]2 | x8 | x8 | %33
 z2 z2 z2 [B,D][CE] | G2 F2 F2 E2 | x6 :| %36

